X:1
T:Title
%%score { ( 1 3 ) | ( 2 4 ) }
L:1/8
M:4/4
K:Bb
V:1 treble nm="Grand Piano"
V:3 treble 
V:2 bass 
V:4 bass 
V:1
 z4 z2[Q:1/4=100] F2 | [B,DB]2 F2 G2 F2 | [B,DB]2 F2 G2 F2 | [DB]2 [DF]2 [B,D]2 [A,C]2 | F6 z2 | %5
 [B,D]2 [CE]2 [DF]2 [DF]2 | [EG]2 [^FA]2 [GB]2 [DG]2 | [=EG]2 [EB]2 [EA]2 [EG]2 | [EA]6 [EF]2 | %9
 [EG]2 [EG]2 [FA]2 [EG]2 | [DF]2 [DB]4 [B,D]2 | [CE]2 [DF]2 [FA]2 [EG]2 | [F,DF]6 F2 | %13
 [B,DB]2 F2 G2 F2 | [B,DB]2 F2 G2 D2 | [F,A,F]2 [F,B,F]2 [F,B,F]2 [F,CF]2 |[M:3/4] [Ec]6 | %17
[M:5/16] DE3/2 |[M:4/4] [F,DF]2 [F,DF]2 [DG]2 [B,D][CE] | [DF]2 [DF]2 [DG]2 [B,D]2 | %20
 [DF]2 [DB]2 [DA]2 [DG]2 | [EA]6[K:bass][K:treble] z2 | [EG]2 [EG]2 [EA]2 EF | %23
 [EG]2 [EG]2 [EA]2 E2 | [EG]2 [EG]2 [EA]2 [EG]2 | [DF]6[K:bass][K:treble] z2 | %26
 [DB]2 [DB]2 [DB]2 [DF]2 | A2 G4 G2 | [=Ec]2 [EG]2 [EA]2 [EB]2 | %29
 [EA]6 [EF]2[Q:1/4=99][Q:1/4=97][Q:1/4=96] | %30
 [DB]2 [DB]2 [DF]3 [DF][Q:1/4=94][Q:1/4=93][Q:1/4=91][Q:1/4=90][Q:1/4=88][Q:1/4=87][Q:1/4=85][Q:1/4=84][Q:1/4=82][Q:1/4=81][Q:1/4=79][Q:1/4=78][Q:1/4=76] | %31
 [EG]2 [Ge]2 [Gd]2 [Gc]>[Gc] | B2 d2 c3 [DB] |[M:3/4] [DB]6 |] %34
V:2
 z4 z2 F,2 | B,,2 F,2 G,2 F,2 | B,,2 F,2 G,2 F,2 | [B,,F,B,]2 [B,,B,]2 [B,,F,]2 [F,,F,]2 | %4
 [B,,D,B,]2 [=B,,F,]2 [C,F,A,]2 [F,,F,]2 | [B,,F,]2 [B,,F,]2 [B,,B,]2 [B,,B,]2 | %6
 [E,B,]2 [D,D]2 [G,D]2 [G,B,]2 | [C,C]2 [C,G,]2 [C,C]2 [C,C]2 | [F,C]6 [F,A,]2 | %9
 [F,,F,]2 [F,,F,]2 [F,,F,]2 [F,,F,]2 | [B,,F,]2 [B,,F,]4 [B,,F,]2 | %11
 [F,,F,]2 [F,,F,]2 [F,,F,]2 [F,,F,]2 | B,,6 F,2 | B,,2 F,2 G,2 F,2 | B,,2 F,2 G,2 D,2 | %15
 F,,2 G,,2 _A,,2 =A,,2 |[M:3/4] [F,,F,]6 |[M:5/16] B,C3/2 |[M:4/4] B,,2 F,,2 [B,,F,]2 [F,,F,]2 | %19
 [B,,F,]2 [F,,F,]2 [B,,F,]2 [F,,F,]2 | [B,,F,]2 [F,,F,]2 [B,,F,]2 [B,,F,]2 | [C,F,]2 F,,2 C,2 z2 | %22
 [C,F,]2 [F,,F,]2 [C,F,]2 z E | [C,F,]2 [F,,F,]2 [C,F,]2 [F,,F,]2 | %24
 [C,F,]2 [F,,F,]2 [C,F,]2 [F,,F,]2 | [B,,F,]2 F,,2 B,,2 B,,2 | %26
 [B,,F,]2 [B,,F,]2 [B,,F,]2 [B,,B,]2 | [E,B,E]2 [E,B,E]4 [E,B,E]2 | [C,B,]2 [C,C]2 [C,C]2 [C,C]2 | %29
 [F,C]6 [F,A,]2 | [B,,F,]2 [B,,F,]2 [B,,B,]3 [B,,B,] | [E,B,]2 [C,C]2 [D,=B,]2 [E,E]>[E,E] | %32
 [F,F]4 z4 |[M:3/4] [B,,F,]6 |] %34
V:3
 x8 | x8 | x8 | x8 | z2 _A,2 E2 [CE]2 | x8 | x8 | x8 | x8 | x8 | x8 | x8 | x8 | x8 | x8 | x8 | %16
[M:3/4] x6 |[M:5/16] x5/2 |[M:4/4] x8 | x8 | x8 | z2[K:bass] F,2 F,2[K:treble] E2 | x8 | x8 | x8 | %25
 z2[K:bass] F,2 F,2[K:treble] [B,DF]2 | x8 | x8 | x8 | x8 | x8 | x8 | x8 |[M:3/4] x6 |] %34
V:4
 x8 | x8 | x8 | x8 | x8 | x8 | x8 | x8 | x8 | x8 | x8 | x8 | x8 | x8 | x8 | x8 |[M:3/4] x6 | %17
[M:5/16] x5/2 |[M:4/4] x8 | x8 | x8 | x8 | z4 z2 [F,,F,]2 | x8 | x8 | x8 | x8 | x8 | x8 | x8 | x8 | %31
 x8 | D2 B,2 [F,A,E]3 [B,,F,] |[M:3/4] x6 |] %34

